src/2-landmarks/desktop--handle-document.svg

<svg width="1300" height="1000" viewBox="0 0 1300 1000" fill="none" xmlns="http://www.w3.org/2000/svg"><path fill-rule="evenodd" clip-rule="evenodd" d="M811.121 412.982a3 3 0 0 0 0 4.243l70.003 70.004a3.001 3.001 0 0 0 4.243 0L898 474.596v-.965c1.166 4.073 2.24 7.924 3 10.869l83.5 75.5 21.41-17.768c-2.4 25.419-3.41 50.974-3.41 69.489l-22.074 7.447a28.552 28.552 0 0 0-19.425 27.053l-54.012 15.568c-18.085 5.213-30.09 22.329-28.832 41.109l11.344 169.323-16.376 8.634a20 20 0 0 0-10.658 18.432l.026.713H679V603h293c11.046 0 20-8.954 20-20s-8.954-20-20-20H672c-11.046 0-20 8.954-20 20s8.954 20 20 20v297H461V701h7.5c6.904 0 12.5-5.596 12.5-12.5s-5.596-12.5-12.5-12.5H361a5 5 0 0 1-5-5v-77.5c0-6.904-5.596-12.5-12.5-12.5s-12.5 5.596-12.5 12.5V681c0 10.371 7.893 18.898 18 19.901V900H0v100h1300V900h-152V700.901c10.11-1.003 18-9.53 18-19.901v-87.5c0-6.904-5.6-12.5-12.5-12.5s-12.5 5.596-12.5 12.5V671c0 2.761-2.24 5-5 5h-22.44a39.968 39.968 0 0 0 6.07-20.247l.87-37.032 9.5-1.5s-14.32-94.872-21.5-115.5c-12-34.5-35.5-62-74-53.5-5.03 1.11-9.35 6.604-13.04 15.074L983.5 506 941 473.5l-17.366-24.539 17.595-17.594a3.001 3.001 0 0 0 0-4.243l-70.004-70.003a3 3 0 0 0-4.243 0l-55.861 55.861Zm108.572 30.411.004-.393 13.753-13.754-64.346-64.347-50.205 50.205 64.347 64.346 12.749-12.749a3894.15 3894.15 0 0 0-2.112-7.205c-1.44-4.901-2.578-8.776-2.883-9.996-1-4 1-15.5 11-17 8-1.2 14 5.167 16 8.5l1.693 2.393Zm139.467.693c-3.77 1.408-10.81 1.91-12.65 1.914 0 0-8.3-.069-13.13-1.914-5.45-2.079-8.49-4.109-12.17-8.575-2.49-3.022-4.43-8.223-5.32-10.853a22.077 22.077 0 0 1-.8-3.31l-4.09-24.154s-.5-3.492-.49-5.742c.02-5.351.75-8.493 2.92-13.398 2.23-5.038 4.18-7.735 8.27-11.484 4.36-3.996 7.5-5.742 13.14-7.625 4.38-1.462 7.05-1.907 11.67-1.945 4.96.167 6.81.478 11.55 1.945 4.74 1.577 9.58 4.373 13.26 7.625 3.69 3.252 6.26 7.101 8.27 11.484s2.92 8.615 2.92 13.398c0 1.803-.2 3.959-.48 5.742l-4.87 23.833c-.25 1.229-.57 2.441-1.01 3.617-1.04 2.793-3.2 8.177-5.31 10.829-2.93 3.676-7.17 6.929-11.68 8.613Zm-2.46-6.699c-3.04 1.186-8.7 1.609-10.19 1.613 0 0-6.69-.058-10.58-1.613-4.39-1.752-6.83-3.462-9.8-7.226-1.95-2.474-3.48-6.68-4.22-8.951a20.428 20.428 0 0 1-.74-3.184l-3.27-20.155s-.4-2.943-.39-4.839c.02-4.509.6-7.156 2.35-11.29 1.8-4.246 3.37-6.518 6.67-9.677 3.5-3.368 6.03-4.839 10.58-6.426 3.52-1.232 5.68-1.607 9.4-1.639 4 .141 5.49.403 9.3 1.639 3.82 1.329 7.72 3.685 10.69 6.426 2.96 2.74 5.04 5.983 6.66 9.677s2.35 7.26 2.35 11.29c0 1.52-.16 3.337-.39 4.839l-3.88 19.862c-.23 1.184-.52 2.351-.93 3.486-.87 2.407-2.55 6.742-4.2 8.91-2.36 3.098-5.78 5.839-9.41 7.258Zm-40.95 43.035c-3.96 15.069-6.9 33.932-8.98 53.346L985 551l-78.5-70.5-9-32c-.667-2.833.1-7.8 4.5-9 4.4-1.2 7.833 1.5 9 3l24 35 50 39 30.75-36.078Zm78.64 211.565a39.999 39.999 0 0 0 13.63-8.987H1138c5.52 0 10-4.477 10-10v-79.5c0-3.038 2.46-5.5 5.5-5.5s5.5 2.462 5.5 5.5V679c0 8.284-6.72 15-15 15h-54.68l5.07-2.013ZM1043 712.385 1071.68 701H1141v199h-98V712.385Zm-52.499 20.836L1036 715.163V900h-36.499v-17.779c3.729 0 6.629-3.249 6.209-6.955l-1.21-10.545-13.999-131.5Zm3 144.009V900h-78.496l.052-3.099a9.999 9.999 0 0 1 6.71-9.277l21.234-7.394-23.925-154.291a30.002 30.002 0 0 1 12.749-29.387L1013 641.221l99.5-23v36.898a29.996 29.996 0 0 1-18.59 27.746l-112.737 46.356 17.17 142.548a4.877 4.877 0 0 1-4.842 5.461Zm-85.634 17.321-.351 5.449h-36.015v-4.069c0-4.059 2.454-7.715 6.21-9.254l20.79-8.516-12.328-177.824c-.976-14.077 7.991-26.931 21.538-30.877l91.79-26.739-75.336 51.328a30 30 0 0 0-12.753 29.4l23.589 151.772-17.227 6.175a15 15 0 0 0-9.907 13.155Zm188.633-405.83c13.91 29.977 26 121.5 26 121.5l-111.5 24-41.294 10.442a1.303 1.303 0 0 1-1.571-1.626 26.057 26.057 0 0 1 17.071-17.548l25.794-8.268 65-24-11.27-63.634a1.542 1.542 0 0 0-1.52-1.275c-.92 0-1.63.788-1.54 1.696l5.83 58.713-58.5 22.5c0-99.243 13.49-137.023 20.03-149.508 1.97-3.772 5.51-6.252 9.69-7.045 12.44-2.356 40.63-2.92 57.78 34.053ZM356 900h98V701h-98v199Zm316-330c-7.18 0-13 5.82-13 13s5.82 13 13 13h300c7.18 0 13-5.82 13-13s-5.82-13-13-13H672ZM468.5 683a5.5 5.5 0 1 1 0 11H353c-8.284 0-15-6.716-15-15v-85.5a5.5 5.5 0 0 1 11 0V673c0 5.523 4.477 10 10 10h109.5Z" fill="#000"/></svg>

<svg width="1300" height="1000" viewBox="0 0 1300 1000" fill="none" xmlns="http://www.w3.org/2000/svg">
<path fill-rule="evenodd" clip-rule="evenodd" d="M811.121 412.982C809.949 414.154 809.949 416.053 811.121 417.225L881.124 487.229C882.296 488.4 884.195 488.4 885.367 487.229L898 474.596V473.631C899.166 477.704 900.24 481.555 901 484.5L984.5 560L1005.91 542.232C1003.51 567.651 1002.5 593.206 1002.5 611.721L980.426 619.168C968.818 623.084 961.001 633.97 961.001 646.221L906.989 661.789C888.904 667.002 876.899 684.118 878.157 702.898L889.501 872.221L873.125 880.855C866.326 884.441 862.182 891.605 862.467 899.287L862.493 900H679V603H972C983.046 603 992 594.046 992 583C992 571.954 983.046 563 972 563H672C660.954 563 652 571.954 652 583C652 594.046 660.954 603 672 603V900H461V701H468.5C475.404 701 481 695.404 481 688.5C481 681.596 475.404 676 468.5 676H361C358.239 676 356 673.761 356 671V593.5C356 586.596 350.404 581 343.5 581C336.596 581 331 586.596 331 593.5V681C331 691.371 338.893 699.898 349 700.901V900H0V1000H1300V900H1148V700.901C1158.11 699.898 1166 691.371 1166 681V593.5C1166 586.596 1160.4 581 1153.5 581C1146.6 581 1141 586.596 1141 593.5V671C1141 673.761 1138.76 676 1136 676H1113.56C1117.29 670.039 1119.45 663.082 1119.63 655.753L1120.5 618.721L1130 617.221C1130 617.221 1115.68 522.349 1108.5 501.721C1096.5 467.221 1073 439.721 1034.5 448.221C1029.47 449.331 1025.15 454.825 1021.46 463.295L983.5 506L941 473.5L923.634 448.961L941.229 431.367C942.4 430.196 942.4 428.296 941.229 427.124L871.225 357.121C870.053 355.949 868.154 355.949 866.982 357.121L811.121 412.982ZM919.693 443.393L919.697 443L933.45 429.246L869.104 364.899L818.899 415.104L883.246 479.45L895.995 466.701C895.262 464.189 894.541 461.735 893.883 459.496C892.443 454.595 891.305 450.72 891 449.5C890 445.5 892 434 902 432.5C910 431.3 916 437.667 918 441L919.693 443.393ZM1059.16 444.086C1055.39 445.494 1048.35 445.996 1046.51 446C1046.51 446 1038.21 445.931 1033.38 444.086C1027.93 442.007 1024.89 439.977 1021.21 435.511C1018.72 432.489 1016.78 427.288 1015.89 424.658C1015.53 423.579 1015.28 422.47 1015.09 421.348L1011 397.194C1011 397.194 1010.5 393.702 1010.51 391.452C1010.53 386.101 1011.26 382.959 1013.43 378.054C1015.66 373.016 1017.61 370.319 1021.7 366.57C1026.06 362.574 1029.2 360.828 1034.84 358.945C1039.22 357.483 1041.89 357.038 1046.51 357C1051.47 357.167 1053.32 357.478 1058.06 358.945C1062.8 360.522 1067.64 363.318 1071.32 366.57C1075.01 369.822 1077.58 373.671 1079.59 378.054C1081.6 382.437 1082.51 386.669 1082.51 391.452C1082.51 393.255 1082.31 395.411 1082.03 397.194L1077.16 421.027C1076.91 422.256 1076.59 423.468 1076.15 424.644C1075.11 427.437 1072.95 432.821 1070.84 435.473C1067.91 439.149 1063.67 442.402 1059.16 444.086ZM1056.7 437.387C1053.66 438.573 1048 438.996 1046.51 439C1046.51 439 1039.82 438.942 1035.93 437.387C1031.54 435.635 1029.1 433.925 1026.13 430.161C1024.18 427.687 1022.65 423.481 1021.91 421.21C1021.57 420.171 1021.34 419.105 1021.17 418.026L1017.9 397.871C1017.9 397.871 1017.5 394.928 1017.51 393.032C1017.53 388.523 1018.11 385.876 1019.86 381.742C1021.66 377.496 1023.23 375.224 1026.53 372.065C1030.03 368.697 1032.56 367.226 1037.11 365.639C1040.63 364.407 1042.79 364.032 1046.51 364C1050.51 364.141 1052 364.403 1055.81 365.639C1059.63 366.968 1063.53 369.324 1066.5 372.065C1069.46 374.805 1071.54 378.048 1073.16 381.742C1074.78 385.436 1075.51 389.002 1075.51 393.032C1075.51 394.552 1075.35 396.369 1075.12 397.871L1071.24 417.733C1071.01 418.917 1070.72 420.084 1070.31 421.219C1069.44 423.626 1067.76 427.961 1066.11 430.129C1063.75 433.227 1060.33 435.968 1056.7 437.387ZM1015.75 480.422C1011.79 495.491 1008.85 514.354 1006.77 533.768L985 551L906.5 480.5L897.5 448.5C896.833 445.667 897.6 440.7 902 439.5C906.4 438.3 909.833 441 911 442.5L935 477.5L985 516.5L1015.75 480.422ZM1094.39 691.987C1099.61 689.918 1104.21 686.828 1108.02 683H1138C1143.52 683 1148 678.523 1148 673V593.5C1148 590.462 1150.46 588 1153.5 588C1156.54 588 1159 590.462 1159 593.5V679C1159 687.284 1152.28 694 1144 694H1089.32L1094.39 691.987ZM1043 712.385L1071.68 701H1141V900H1043V712.385ZM990.501 733.221L1036 715.163V900H999.501V882.221C1003.23 882.221 1006.13 878.972 1005.71 875.266L1004.5 864.721L990.501 733.221ZM993.501 877.23V900H915.005L915.057 896.901C915.127 892.707 917.806 889.003 921.767 887.624L943.001 880.23L919.076 725.939C917.303 714.504 922.264 703.07 931.825 696.552L1013 641.221L1112.5 618.221V655.119C1112.5 667.281 1105.16 678.24 1093.91 682.865L981.173 729.221L998.343 871.769C998.693 874.673 996.426 877.23 993.501 877.23ZM907.867 894.551L907.516 900H871.501V895.931C871.501 891.872 873.955 888.216 877.711 886.677L898.501 878.161L886.173 700.337C885.197 686.26 894.164 673.406 907.711 669.46L999.501 642.721L924.165 694.049C914.597 700.568 909.634 712.009 911.412 723.449L935.001 875.221L917.774 881.396C912.145 883.414 908.252 888.583 907.867 894.551ZM1096.5 488.721C1110.41 518.698 1122.5 610.221 1122.5 610.221L1011 634.221L969.706 644.663C968.73 644.91 967.855 644.004 968.135 643.037C970.552 634.712 976.951 628.135 985.206 625.489L1011 617.221L1076 593.221L1064.73 529.587C1064.6 528.849 1063.96 528.312 1063.21 528.312C1062.29 528.312 1061.58 529.1 1061.67 530.008L1067.5 588.721L1009 611.221C1009 511.978 1022.49 474.198 1029.03 461.713C1031 457.941 1034.54 455.461 1038.72 454.668C1051.16 452.312 1079.35 451.748 1096.5 488.721ZM356 900H454V701H356V900ZM672 570C664.82 570 659 575.82 659 583C659 590.18 664.82 596 672 596H972C979.18 596 985 590.18 985 583C985 575.82 979.18 570 972 570H672ZM468.5 683C471.538 683 474 685.462 474 688.5C474 691.538 471.538 694 468.5 694H353C344.716 694 338 687.284 338 679V593.5C338 590.462 340.463 588 343.5 588C346.538 588 349 590.462 349 593.5V673C349 678.523 353.477 683 359 683H468.5Z" fill="black"/>
</svg>
